X:2032 
T:Yn guilley dy roie 
C:Mrs T Kennaugh, Ballakaighen
O:Isle of Man
S:Traditional
Z:Clague collection
B:Kiaull Vannin #32
L:1/8
M:3/8 
Q:200 
K:G 
d|dde|d2B|ccd|c2A|B2c|B2G|A2D|G2F|G2A|B2c|d2G|G2G|G2F|G2|| 
